;FLAVOR:Marlin
;TIME:2265
;Filament used: 1.546m
;Layer height: 0.28
;MINX:102.765
;MINY:89.559
;MINZ:0.28
;MAXX:169.803
;MAXY:130.441
;MAXZ:12.88
;Generated with Cura_SteamEngine 5.0.0
M140 S60
M105
M190 S60
M104 S220
M105
M109 S220
M82 ;absolute extrusion mode
M201 X500.00 Y500.00 Z100.00 E5000.00 ;Setup machine max acceleration
M203 X500.00 Y500.00 Z10.00 E50.00 ;Setup machine max feedrate
M204 P500.00 R1000.00 T500.00 ;Setup Print/Retract/Travel acceleration
M205 X8.00 Y8.00 Z0.40 E5.00 ;Setup Jerk
M220 S100 ;Reset Feedrate
M221 S100 ;Reset Flowrate

G28 ;Home

G92 E0 ;Reset Extruder
G1 Z2.0 F3000 ;Move Z Axis up
G1 X10.1 Y20 Z0.28 F5000.0 ;Move to start position
G1 X10.1 Y200.0 Z0.28 F1500.0 E15 ;Draw the first line
G1 X10.4 Y200.0 Z0.28 F5000.0 ;Move to side a little
G1 X10.4 Y20 Z0.28 F1500.0 E30 ;Draw the second line
G92 E0 ;Reset Extruder
G1 Z2.0 F3000 ;Move Z Axis up

G92 E0
G92 E0
G1 F2700 E-5
;LAYER_COUNT:46
;LAYER:0
M107
M204 S500
M205 X8 Y8
G0 F6000 X104.783 Y94.267 Z0.28
G0 X102.765 Y99.483
;TYPE:SKIRT
G1 F2700 E0
G1 F1200 X102.77 Y99.294 E0.0088
G1 X102.831 Y98.506 E0.04561
G1 X102.971 Y97.729 E0.08237
G1 X103.189 Y96.97 E0.11914
G1 X103.482 Y96.237 E0.1559
G1 X103.848 Y95.538 E0.19264
G1 X104.284 Y94.879 E0.22943
G1 X104.783 Y94.267 E0.2662
G1 X105.342 Y93.709 E0.30298
G1 X105.954 Y93.21 E0.33975
G1 X106.614 Y92.776 E0.37653
G1 X107.314 Y92.411 E0.41329
G1 X108.047 Y92.118 E0.45005
G1 X108.807 Y91.901 E0.48685
G1 X109.584 Y91.762 E0.52361
G1 X110.567 Y91.7 E0.56947
G1 X113.821 Y91.7 E0.72099
G1 X114.102 Y91.714 E0.73409
G1 X114.707 Y91.193 E0.77127
G1 X115.355 Y90.742 E0.80803
G1 X116.046 Y90.358 E0.84484
G1 X116.771 Y90.046 E0.88159
G1 X117.524 Y89.809 E0.91835
G1 X118.298 Y89.65 E0.95514
G1 X119.083 Y89.569 E0.99189
G1 X119.485 Y89.559 E1.01062
G1 X135.485 Y89.56 E1.75564
G1 X136.274 Y89.6 E1.79243
G1 X137.055 Y89.72 E1.82922
G1 X137.819 Y89.917 E1.86596
G1 X138.56 Y90.192 E1.90276
G1 X139.269 Y90.539 E1.93952
G1 X139.939 Y90.957 E1.97629
G1 X140.564 Y91.44 E2.01307
G1 X140.837 Y91.7 E2.03063
G1 X141.321 Y91.7 E2.05316
G1 X141.602 Y91.714 E2.06626
G1 X142.207 Y91.193 E2.10344
G1 X142.855 Y90.742 E2.1402
G1 X143.546 Y90.358 E2.17701
G1 X144.271 Y90.046 E2.21377
G1 X145.024 Y89.809 E2.25053
G1 X145.798 Y89.65 E2.28732
G1 X146.583 Y89.569 E2.32407
G1 X146.986 Y89.559 E2.34284
G1 X160.64 Y89.56 E2.97862
G1 X161.428 Y89.6 E3.01536
G1 X162.209 Y89.72 E3.05216
G1 X162.973 Y89.917 E3.0889
G1 X163.714 Y90.192 E3.1257
G1 X164.423 Y90.539 E3.16246
G1 X165.093 Y90.957 E3.19923
G1 X165.718 Y91.44 E3.23601
G1 X166.29 Y91.984 E3.27276
G1 X166.805 Y92.583 E3.30955
G1 X167.273 Y93.262 E3.34795
G1 X167.654 Y93.623 E3.37239
G1 X168.169 Y94.222 E3.40917
G1 X168.62 Y94.87 E3.44593
G1 X169.004 Y95.561 E3.48274
G1 X169.316 Y96.286 E3.5195
G1 X169.553 Y97.039 E3.55625
G1 X169.712 Y97.813 E3.59305
G1 X169.793 Y98.598 E3.62979
G1 X169.803 Y99 E3.64852
G1 X169.803 Y99.738 E3.68288
G1 X169.763 Y100.527 E3.71967
G1 X169.644 Y101.307 E3.75641
G1 X169.446 Y102.072 E3.79321
G1 X169.172 Y102.812 E3.82995
G1 X168.824 Y103.521 E3.86673
G1 X168.406 Y104.192 E3.90354
G1 X167.923 Y104.816 E3.94028
G1 X167.203 Y105.551 E3.98819
G1 X166.615 Y106.077 E4.02493
G1 X166.001 Y106.573 E4.06168
G1 X165.34 Y107.005 E4.09845
G1 X164.638 Y107.367 E4.13523
G1 X163.903 Y107.657 E4.17202
G1 X163.143 Y107.87 E4.20877
G1 X162.658 Y107.955 E4.2317
G1 X162.091 Y108.112 E4.2591
G1 X161.313 Y108.245 E4.29585
G1 X160.785 Y108.276 E4.32048
G1 X160.785 Y111.72 E4.48084
G1 X161.182 Y111.74 E4.49935
G1 X161.962 Y111.859 E4.53609
G1 X162.727 Y112.057 E4.57289
G1 X162.9 Y112.123 E4.58151
G1 X163.495 Y112.251 E4.60985
G1 X164.247 Y112.495 E4.64666
G1 X164.969 Y112.813 E4.6834
G1 X165.656 Y113.203 E4.72018
G1 X166.3 Y113.66 E4.75695
G1 X166.659 Y113.961 E4.77877
G1 X167 Y114.265 E4.80004
G1 X167.562 Y114.819 E4.83679
G1 X168.065 Y115.428 E4.87357
G1 X168.504 Y116.084 E4.91032
G1 X168.874 Y116.782 E4.94711
G1 X169.172 Y117.513 E4.98387
G1 X169.395 Y118.271 E5.02066
G1 X169.539 Y119.047 E5.05741
G1 X169.609 Y120.087 E5.10594
G1 X169.609 Y121 E5.14846
G1 X169.569 Y121.789 E5.18524
G1 X169.45 Y122.569 E5.22198
G1 X169.252 Y123.334 E5.25878
G1 X168.978 Y124.074 E5.29552
G1 X168.63 Y124.783 E5.3323
G1 X168.212 Y125.454 E5.36911
G1 X167.729 Y126.078 E5.40585
G1 X167.525 Y126.293 E5.41966
G1 X167.463 Y126.42 E5.42624
G1 X167.046 Y127.091 E5.46302
G1 X166.563 Y127.716 E5.4998
G1 X166.02 Y128.289 E5.53656
G1 X165.421 Y128.804 E5.57334
G1 X164.774 Y129.256 E5.6101
G1 X164.084 Y129.64 E5.64687
G1 X163.358 Y129.952 E5.68366
G1 X162.605 Y130.189 E5.72042
G1 X161.832 Y130.349 E5.75718
G1 X161.046 Y130.43 E5.79397
G1 X160.64 Y130.441 E5.81288
G1 X146.985 Y130.441 E6.44872
G1 X146.196 Y130.401 E6.4855
G1 X145.416 Y130.282 E6.52224
G1 X144.651 Y130.084 E6.55904
G1 X143.911 Y129.81 E6.59578
G1 X143.202 Y129.462 E6.63256
G1 X142.531 Y129.044 E6.66937
G1 X141.907 Y128.561 E6.70611
G1 X141.621 Y128.29 E6.72446
G1 X141.321 Y128.3 E6.73844
G1 X140.853 Y128.3 E6.76023
G1 X140.263 Y128.807 E6.79645
G1 X139.615 Y129.258 E6.83321
G1 X138.924 Y129.642 E6.87002
G1 X138.199 Y129.954 E6.90678
G1 X137.446 Y130.191 E6.94353
G1 X136.672 Y130.35 E6.98033
G1 X135.887 Y130.431 E7.01707
G1 X135.485 Y130.441 E7.0358
G1 X119.485 Y130.44 E7.78083
G1 X118.696 Y130.4 E7.81761
G1 X117.915 Y130.28 E7.85441
G1 X117.151 Y130.083 E7.89114
G1 X116.41 Y129.808 E7.92795
G1 X115.701 Y129.461 E7.9647
G1 X115.031 Y129.043 E8.00148
G1 X114.406 Y128.56 E8.03826
G1 X114.122 Y128.29 E8.0565
G1 X113.821 Y128.3 E8.07053
G1 X110.566 Y128.3 E8.22209
G1 X109.777 Y128.26 E8.25888
G1 X108.997 Y128.141 E8.29562
G1 X108.232 Y127.943 E8.33241
G1 X107.492 Y127.669 E8.36916
G1 X106.783 Y127.321 E8.40593
G1 X106.112 Y126.903 E8.44275
G1 X105.488 Y126.42 E8.47949
G1 X104.915 Y125.877 E8.51625
G1 X104.4 Y125.278 E8.55303
G1 X103.949 Y124.63 E8.58979
G1 X103.565 Y123.939 E8.6266
G1 X103.253 Y123.214 E8.66336
G1 X103.016 Y122.461 E8.70011
G1 X102.857 Y121.687 E8.73691
G1 X102.776 Y120.902 E8.77365
G1 X102.766 Y120.439 E8.79522
G1 X102.771 Y119.796 E8.82516
G1 X102.817 Y119.008 E8.86192
G1 X102.943 Y118.228 E8.89871
G1 X102.973 Y117.804 E8.9185
G1 X103.083 Y117.022 E8.95527
G1 X103.272 Y116.256 E8.99201
G1 X103.537 Y115.512 E9.02878
G1 X103.876 Y114.799 E9.06555
G1 X104.286 Y114.123 E9.10236
G1 X104.761 Y113.493 E9.1391
G1 X105.298 Y112.914 E9.17587
G1 X105.891 Y112.392 E9.21266
G1 X106.533 Y111.933 E9.24941
G1 X107.219 Y111.541 E9.2862
G1 X107.941 Y111.22 E9.32299
G1 X108.691 Y110.974 E9.35974
G1 X109.462 Y110.806 E9.39649
G1 X110.247 Y110.716 E9.43328
G1 X110.742 Y110.7 E9.45634
G1 X111.685 Y110.7 E9.50025
G1 X111.685 Y109.3 E9.56544
G1 X110.743 Y109.3 E9.6093
G1 X109.954 Y109.26 E9.64609
G1 X109.174 Y109.141 E9.68283
G1 X108.409 Y108.943 E9.71963
G1 X107.669 Y108.669 E9.75637
G1 X106.96 Y108.321 E9.79315
G1 X106.289 Y107.903 E9.82996
G1 X105.665 Y107.42 E9.8667
G1 X105.092 Y106.877 E9.90346
G1 X104.577 Y106.278 E9.94024
G1 X104.126 Y105.63 E9.977
G1 X103.742 Y104.939 E10.01381
G1 X103.43 Y104.214 E10.05057
G1 X103.193 Y103.461 E10.08733
G1 X103.034 Y102.687 E10.12412
G1 X102.977 Y102.132 E10.1501
G1 X102.886 Y101.733 E10.16915
G1 X102.789 Y100.949 E10.20594
G1 X102.769 Y100.466 E10.22845
G1 X102.765 Y99.483 E10.27422
G0 F6000 X103.165 Y99.493
G1 F1200 X103.17 Y99.304 E10.28303
G1 X103.23 Y98.538 E10.3188
G1 X103.369 Y97.781 E10.35464
G1 X103.587 Y97.043 E10.39047
G1 X103.879 Y96.332 E10.42626
G1 X104.244 Y95.655 E10.46208
G1 X104.678 Y95.019 E10.49793
G1 X105.175 Y94.432 E10.53375
G1 X105.73 Y93.9 E10.56954
G1 X106.337 Y93.428 E10.60535
G1 X106.99 Y93.022 E10.64115
G1 X107.682 Y92.686 E10.67697
G1 X108.405 Y92.423 E10.7128
G1 X109.151 Y92.237 E10.7486
G1 X109.913 Y92.129 E10.78443
G1 X110.567 Y92.1 E10.81492
G1 X113.821 Y92.1 E10.96644
G1 X114.269 Y92.123 E10.98732
G1 X114.501 Y91.889 E11.00267
G1 X115.096 Y91.401 E11.0385
G1 X115.738 Y90.978 E11.0743
G1 X116.421 Y90.623 E11.11014
G1 X117.136 Y90.342 E11.14591
G1 X117.878 Y90.136 E11.18177
G1 X118.636 Y90.008 E11.21757
G1 X119.485 Y89.959 E11.25717
G1 X135.485 Y89.96 E12.00219
G1 X136.254 Y90 E12.03805
G1 X137.013 Y90.12 E12.07383
G1 X137.757 Y90.317 E12.10967
G1 X138.475 Y90.591 E12.14545
G1 X139.162 Y90.938 E12.18129
G1 X139.809 Y91.354 E12.21711
G1 X140.409 Y91.836 E12.25295
G1 X140.675 Y92.1 E12.2704
G1 X141.321 Y92.1 E12.30048
G1 X141.769 Y92.123 E12.32137
G1 X142.001 Y91.889 E12.33671
G1 X142.596 Y91.401 E12.37254
G1 X143.238 Y90.978 E12.40834
G1 X143.921 Y90.623 E12.44418
G1 X144.636 Y90.342 E12.47996
G1 X145.378 Y90.136 E12.51581
G1 X146.136 Y90.008 E12.55161
G1 X146.986 Y89.959 E12.59125
G1 X160.64 Y89.96 E13.22704
G1 X161.408 Y90 E13.26285
G1 X162.167 Y90.12 E13.29863
G1 X162.911 Y90.317 E13.33447
G1 X163.63 Y90.591 E13.3703
G1 X164.316 Y90.938 E13.4061
G1 X164.963 Y91.355 E13.44194
G1 X165.563 Y91.836 E13.47775
G1 X166.11 Y92.377 E13.51357
G1 X166.597 Y92.971 E13.54934
G1 X166.936 Y93.485 E13.57801
G1 X167.473 Y94.016 E13.61317
G1 X167.961 Y94.611 E13.649
G1 X168.384 Y95.253 E13.6848
G1 X168.739 Y95.936 E13.72065
G1 X169.02 Y96.651 E13.75642
G1 X169.226 Y97.393 E13.79228
G1 X169.354 Y98.151 E13.82807
G1 X169.403 Y99 E13.86767
G1 X169.403 Y99.738 E13.90204
G1 X169.363 Y100.506 E13.93785
G1 X169.244 Y101.266 E13.97367
G1 X169.046 Y102.009 E14.00947
G1 X168.772 Y102.728 E14.0453
G1 X168.425 Y103.414 E14.0811
G1 X168.009 Y104.061 E14.11691
G1 X167.528 Y104.661 E14.15272
G1 X166.937 Y105.253 E14.19167
G1 X166.349 Y105.779 E14.22841
G1 X165.75 Y106.262 E14.26424
G1 X165.104 Y106.679 E14.30004
G1 X164.418 Y107.027 E14.33586
G1 X163.7 Y107.303 E14.37168
G1 X162.957 Y107.502 E14.40749
G1 X162.585 Y107.561 E14.42503
G1 X161.965 Y107.73 E14.45495
G1 X161.206 Y107.855 E14.49077
G1 X160.385 Y107.9 E14.52906
G1 X160.385 Y112.1 E14.72463
G1 X161.161 Y112.14 E14.76081
G1 X161.921 Y112.259 E14.79663
G1 X162.664 Y112.457 E14.83244
G1 X162.803 Y112.51 E14.83936
G1 X163.411 Y112.643 E14.86834
G1 X164.141 Y112.883 E14.90413
G1 X164.843 Y113.198 E14.93995
G1 X165.509 Y113.584 E14.9758
G1 X166.392 Y114.259 E15.02755
G1 X166.733 Y114.563 E15.04882
G1 X167.28 Y115.104 E15.08465
G1 X167.768 Y115.699 E15.12048
G1 X168.191 Y116.341 E15.15628
G1 X168.545 Y117.024 E15.1921
G1 X168.827 Y117.74 E15.22793
G1 X169.033 Y118.481 E15.26375
G1 X169.16 Y119.239 E15.29953
G1 X169.209 Y120.087 E15.33909
G1 X169.209 Y121 E15.3816
G1 X169.169 Y121.768 E15.41741
G1 X169.05 Y122.528 E15.45323
G1 X168.852 Y123.271 E15.48903
G1 X168.578 Y123.99 E15.52486
G1 X168.231 Y124.676 E15.56066
G1 X167.815 Y125.323 E15.59647
G1 X167.334 Y125.923 E15.63228
G1 X167.186 Y126.073 E15.64209
G1 X167.064 Y126.314 E15.65467
G1 X166.648 Y126.961 E15.69049
G1 X166.168 Y127.561 E15.72627
G1 X165.627 Y128.108 E15.76209
G1 X165.033 Y128.596 E15.79789
G1 X164.391 Y129.02 E15.83371
G1 X163.708 Y129.375 E15.86956
G1 X162.993 Y129.657 E15.90535
G1 X162.252 Y129.863 E15.94116
G1 X161.493 Y129.992 E15.97701
G1 X160.64 Y130.041 E16.01679
G1 X146.985 Y130.041 E16.65263
G1 X146.217 Y130.001 E16.68844
G1 X145.457 Y129.882 E16.72426
G1 X144.714 Y129.684 E16.76006
G1 X143.995 Y129.41 E16.79589
G1 X143.309 Y129.063 E16.83169
G1 X142.662 Y128.647 E16.8675
G1 X142.062 Y128.166 E16.90331
G1 X141.764 Y127.871 E16.92284
G1 X141.321 Y127.9 E16.94351
G1 X140.678 Y127.9 E16.97345
G1 X140.469 Y128.111 E16.98728
G1 X139.874 Y128.599 E17.02311
G1 X139.232 Y129.022 E17.05891
G1 X138.549 Y129.377 E17.09475
G1 X137.834 Y129.658 E17.13053
G1 X137.092 Y129.864 E17.16638
G1 X136.334 Y129.992 E17.20218
G1 X135.485 Y130.041 E17.24178
G1 X119.485 Y130.04 E17.9868
G1 X118.716 Y130 E18.02266
G1 X117.957 Y129.88 E18.05844
G1 X117.213 Y129.683 E18.09428
G1 X116.495 Y129.409 E18.13006
G1 X115.808 Y129.062 E18.1659
G1 X115.161 Y128.646 E18.20172
G1 X114.561 Y128.164 E18.23756
G1 X114.265 Y127.871 E18.25695
G1 X113.821 Y127.9 E18.27767
G1 X110.566 Y127.9 E18.42924
G1 X109.798 Y127.86 E18.46505
G1 X109.038 Y127.741 E18.50087
G1 X108.295 Y127.543 E18.53667
G1 X107.576 Y127.269 E18.5725
G1 X106.89 Y126.922 E18.6083
G1 X106.243 Y126.506 E18.64411
G1 X105.643 Y126.025 E18.67992
G1 X105.096 Y125.484 E18.71574
G1 X104.608 Y124.889 E18.75158
G1 X104.185 Y124.247 E18.78738
G1 X103.83 Y123.564 E18.82322
G1 X103.549 Y122.849 E18.85899
G1 X103.343 Y122.107 E18.89485
G1 X103.215 Y121.349 E18.93064
G1 X103.166 Y120.442 E18.97294
G1 X103.171 Y119.799 E19.00288
G1 X103.217 Y119.032 E19.03866
G1 X103.357 Y118.22 E19.07703
G1 X103.373 Y117.82 E19.09567
G1 X103.484 Y117.059 E19.13148
G1 X103.672 Y116.313 E19.1673
G1 X103.938 Y115.591 E19.20313
G1 X104.276 Y114.901 E19.23891
G1 X104.685 Y114.249 E19.27475
G1 X105.159 Y113.643 E19.31057
G1 X105.693 Y113.09 E19.34637
G1 X106.282 Y112.595 E19.38219
G1 X106.919 Y112.164 E19.418
G1 X107.597 Y111.801 E19.45382
G1 X108.31 Y111.511 E19.48966
G1 X109.048 Y111.296 E19.52545
G1 X109.805 Y111.16 E19.56126
G1 X110.742 Y111.1 E19.60498
G1 X112.085 Y111.1 E19.66752
G1 X112.085 Y108.9 E19.76996
G1 X110.743 Y108.9 E19.83245
G1 X109.975 Y108.86 E19.86826
G1 X109.215 Y108.741 E19.90408
G1 X108.472 Y108.543 E19.93988
G1 X107.753 Y108.269 E19.97571
G1 X107.067 Y107.922 E20.01151
G1 X106.42 Y107.506 E20.04733
G1 X105.82 Y107.025 E20.08313
G1 X105.273 Y106.484 E20.11896
G1 X104.785 Y105.889 E20.15479
G1 X104.362 Y105.247 E20.19059
G1 X104.007 Y104.564 E20.22643
G1 X103.726 Y103.849 E20.26221
G1 X103.52 Y103.107 E20.29806
G1 X103.392 Y102.349 E20.33386
G1 X103.379 Y102.103 E20.34533
G1 X103.27 Y101.605 E20.36907
G1 X103.169 Y100.462 E20.4225
G1 X103.165 Y99.493 E20.46762
G0 F6000 X103.564 Y99.504
G1 F1200 X103.569 Y99.315 E20.47642
G1 X103.629 Y98.569 E20.51127
G1 X103.768 Y97.834 E20.5461
G1 X103.985 Y97.118 E20.58094
G1 X104.276 Y96.429 E20.61577
G1 X104.64 Y95.776 E20.65058
G1 X105.071 Y95.164 E20.68543
G1 X105.565 Y94.603 E20.72024
G1 X106.117 Y94.097 E20.75511
G1 X106.719 Y93.653 E20.78994
G1 X107.365 Y93.276 E20.82477
G1 X108.047 Y92.969 E20.85959
G1 X108.758 Y92.738 E20.8944
G1 X109.49 Y92.583 E20.92924
G1 X110.567 Y92.5 E20.97954
G1 X113.821 Y92.5 E21.13106
G1 X114.422 Y92.532 E21.15909
G1 X114.893 Y92.075 E21.18965
G1 X115.483 Y91.616 E21.22445
G1 X116.119 Y91.221 E21.25932
G1 X116.793 Y90.897 E21.29414
G1 X117.498 Y90.647 E21.32897
G1 X118.226 Y90.473 E21.36382
G1 X118.968 Y90.378 E21.39865
G1 X119.485 Y90.359 E21.42274
G1 X135.485 Y90.36 E22.16777
G1 X136.232 Y90.4 E22.2026
G1 X136.971 Y90.52 E22.23747
G1 X137.692 Y90.717 E22.27227
G1 X138.389 Y90.991 E22.30714
G1 X139.052 Y91.337 E22.34197
G1 X139.674 Y91.752 E22.37678
G1 X140.249 Y92.231 E22.41163
G1 X140.509 Y92.5 E22.42905
G1 X141.321 Y92.5 E22.46686
G1 X141.922 Y92.532 E22.49489
G1 X142.393 Y92.075 E22.52544
G1 X142.983 Y91.616 E22.56025
G1 X143.619 Y91.221 E22.59511
G1 X144.293 Y90.897 E22.62994
G1 X144.998 Y90.647 E22.66477
G1 X145.726 Y90.473 E22.69962
G1 X146.468 Y90.378 E22.73445
G1 X146.986 Y90.359 E22.75859
G1 X160.64 Y90.36 E23.39438
G1 X161.387 Y90.4 E23.42921
G1 X162.125 Y90.52 E23.46403
G1 X162.846 Y90.717 E23.49883
G1 X163.543 Y90.991 E23.5337
G1 X164.206 Y91.337 E23.56853
G1 X164.828 Y91.752 E23.60334
G1 X165.403 Y92.231 E23.63819
G1 X165.923 Y92.769 E23.67303
G1 X166.383 Y93.359 E23.70787
G1 X166.631 Y93.758 E23.72974
G1 X166.766 Y93.871 E23.73794
G1 X167.287 Y94.408 E23.77278
G1 X167.746 Y94.998 E23.80759
G1 X168.141 Y95.634 E23.84245
G1 X168.465 Y96.308 E23.87727
G1 X168.715 Y97.013 E23.9121
G1 X168.889 Y97.741 E23.94696
G1 X168.984 Y98.483 E23.98179
G1 X169.003 Y99 E24.00588
G1 X169.003 Y99.738 E24.04024
G1 X168.963 Y100.485 E24.07508
G1 X168.844 Y101.223 E24.10988
G1 X168.646 Y101.945 E24.14474
G1 X168.373 Y102.641 E24.17956
G1 X168.026 Y103.304 E24.2144
G1 X167.611 Y103.927 E24.24926
G1 X167.132 Y104.501 E24.28407
G1 X166.67 Y104.955 E24.31423
G1 X166.082 Y105.481 E24.35097
G1 X165.499 Y105.949 E24.38578
G1 X164.869 Y106.353 E24.42063
G1 X164.199 Y106.686 E24.45547
G1 X163.498 Y106.947 E24.4903
G1 X162.773 Y107.131 E24.52513
G1 X162.505 Y107.169 E24.53773
G1 X161.84 Y107.348 E24.5698
G1 X161.101 Y107.464 E24.60463
G1 X160.39 Y107.5 E24.63778
